X:99024
T:Miss Flora's Favourite
P:Miss Flora's Favourite
C:Traditional
R:Reel (8x32)
B:RSCDS Gr-24
Z:Anselm Lingnau <anselm@strathspey.org>
M:C
L:1/8
K:C
f|"C"e<ccc c2ec|"F"fe"D7"dc "G"Bagf|"C"e<ccc "F"c2"D7"ac|"G7"BGAB "C"c3 f|
  "C"e<ccc c2ec|"F"fe"D7"dc "G"Bagf|"C"e<ccc "F"c2"D7"ac|"G7"BGAB "C"c3||
F|"C"EFGE "F"FGAc|"G"BcdB "C"cdef|"C"efge "F"af"D7"dc|"G7"BGAB "C"c2zF|
  "C"EFGE "F"FcAc|"G7"BcdB "C"cgeg|"Am"aA"A7"ag "Dm"fedc|"G7"BGAB "C"c3|]
